X:1
T:Cailleach an Airgid  "The Hag with the Money"
M:6/8
L:1/8
Q:80
C:arr. Kent Hiestand
S:Jig
K:HP
{g}eag{g}efe | \
{g}edB{Gdc}d3 | \
{g}eag{g}efe |
{g}dBe{g}dB{G}A | \
{g}eagefe | \
{g}edB{Gdc}d3 |
{g}edBga{g}a | \
{g}age{g}dB{G}A :| \
{g}efga{g}a{g}a |
{g}fed{g}edc | \
{g}efga{g}a{g}a | \
{g}cfe{g}cB{G}A |
{g}efg{ag}a2e | \
{g}fed{g}efg | \
agega{g}a |
{g}age{g}dB{G}A :|
